icons/mobile/24/svg/other-device-shortcuts-24.svg

<!-- This Source Code Form is subject to the terms of the Mozilla Public
   - License, v. 2.0. If a copy of the MPL was not distributed with this
   - file, You can obtain one at http://mozilla.org/MPL/2.0/. -->
<svg width="24" height="24" viewBox="0 0 24 24" fill="none" xmlns="http://www.w3.org/2000/svg">
    <path fill-rule="evenodd" clip-rule="evenodd" d="M19.7471 12.8848L19.3203 13.3115L20.7305 14.7217L22.043 14.751C22.512 14.761 22.9266 15.0494 23.1016 15.4834C23.2765 15.9174 23.1747 16.4122 22.8438 16.7441L21.7363 17.8516L24 20.1162L23.1152 21L20.8516 18.7363L19.7441 19.8438C19.5211 20.0668 19.222 20.1855 18.918 20.1855C18.772 20.1855 18.6243 20.1585 18.4834 20.1016C18.0494 19.9276 17.761 19.5119 17.75 19.0439L17.7207 17.7305L16.3105 16.3203L15.8828 16.748L15 15.8643L17.9912 12.874C17.9912 12.874 17.9923 12.871 17.9941 12.8691C17.9941 12.8691 17.9972 12.868 17.999 12.8662L18.8652 12L19.7471 12.8848ZM17.1953 15.4355L18.959 17.2012L18.9951 18.8252L21.8262 15.9951L20.2021 15.959L18.4365 14.1953L17.1953 15.4355Z" fill="black" />
    <path d="M18.2754 4C19.6542 4.00021 20.7754 5.12213 20.7754 6.5V11.79L19.9258 10.9404L19.0254 10.0381V6.5C19.0254 6.08613 18.6882 5.75021 18.2754 5.75H4.75C4.337 5.75 4 6.086 4 6.5V16.25C4 16.664 4.337 17 4.75 17H14.0137L14.8223 17.8076L15.7617 18.75L17.0107 20H0V18.25H3.25586C2.64647 17.7936 2.25 17.0679 2.25 16.25V6.5C2.25 5.122 3.371 4 4.75 4H18.2754Z" fill="black" />
</svg>

<!-- This Source Code Form is subject to the terms of the Mozilla Public
   - License, v. 2.0. If a copy of the MPL was not distributed with this
   - file, You can obtain one at http://mozilla.org/MPL/2.0/. -->
<svg xmlns="http://www.w3.org/2000/svg" width="24" height="24" fill="none" viewBox="0 0 24 24">
    <path fill="#000" fill-rule="evenodd" d="m19.747 12.885-.427.427 1.41 1.41 1.313.029a1.167 1.167 0 0 1 .8 1.993l-1.107 1.108L24 20.116l-.885.884-2.263-2.264-1.108 1.108a1.168 1.168 0 0 1-1.994-.8l-.03-1.314-1.41-1.41-.427.428-.883-.884 2.991-2.99.003-.005.005-.003.866-.866zm-2.552 2.55 1.764 1.766.036 1.624 2.831-2.83-1.624-.036-1.766-1.764z" clip-rule="evenodd" />
    <path fill="#000" d="M18.275 4c1.38 0 2.5 1.122 2.5 2.5v5.29l-.85-.85-.9-.902V6.5a.75.75 0 0 0-.75-.75H4.75A.75.75 0 0 0 4 6.5v9.75c0 .414.337.75.75.75h9.264l.808.808.94.942L17.01 20H0v-1.75h3.256a2.5 2.5 0 0 1-1.006-2V6.5c0-1.378 1.121-2.5 2.5-2.5z" />
</svg>
